X:1
T:Title
%%score 1 2
L:1/8
Q:1/4=95
M:4/4
K:G
V:1 treble nm="Drawbar Organ, Soprano"
V:2 bass nm="Church Organ, Lublin, 10.8.10.8 D"
V:1
 [B,D][B,D] [B,D]2 [CE]2 [B,D]2 | [B,D][B,D] [B,D]2 [B,G]2 [B,D]2 | [CD][CD] [CD]2 [CA]2 [CD]2 | %3
w: By~Lucy~Jane~Rider~Meyer,~1884 * * * *|||
 [B,G]2 [DA]2 [DB]4 | [Dc][Dc] [Dd]2 [DB]2 [B,G]2 | [DA][DA] [^DB]2 [EG]2 [CE]2 | %6
w: |||
 [B,D][B,D] [B,D]2 [DG]2 [DB]2 | [CA]2 [CA]2 [B,G]4 | [DB][DB] [Dd]2 [DB]2 [^DA]2 | %9
w: |||
 [EG][EG] [^DB]2 [EG]2 [CE]2 | [B,D][B,D] [B,D]2 [CE]2 [B,D]2 | [DG]2 [DB]2 [DA]4 | %12
w: |||
 [DB][DB] [Dd]2 [DB]2 [^DA]2 | [EG][EG] [^DB]2 [EG]2 [CE]2 | [B,D][B,D] [B,D]2 [DG]2 [DB]2 | %15
w: |||
 [CA]2 [CA]2 [B,G]4- | [B,G]4 z4 |] %17
w: ||
V:2
 [G,,G,][G,,G,] [G,,G,]2 [G,,G,]2 [G,,G,]2 | [G,,G,][G,,G,] [G,,G,]2 [G,,D,]2 [G,,G,]2 | %2
 [D,F,][D,F,] [D,F,]2 [D,F,]2 [D,F,]2 | [E,G,]2 [D,F,]2 G,4 | [F,A,][F,A,] [F,A,]2 G,2 G,2 | %5
 [D,F,][D,F,] [B,,F,]2 [C,C]2 [C,G,]2 | [D,G,][D,G,] [D,G,]2 [B,,G,]2 [G,,G,]2 | %7
 [D,F,]2 [D,F,]2 [G,,G,]4 | G,G, [G,B,]2 G,2 [F,B,]2 | [E,B,][E,B,] [B,,A,]2 [C,G,]2 [C,G,]2 | %10
 [G,,G,][G,,G,] [G,,G,]2 [G,,G,]2 [G,,G,]2 | [B,,G,]2 [G,,G,]2 [D,F,]4 | G,G, [G,B,]2 G,2 [F,B,]2 | %13
 [E,B,][E,B,] [B,,A,]2 [C,G,]2 [C,G,]2 | [D,G,][D,G,] [D,G,]2 [B,,G,]2 [G,,G,]2 | %15
 [D,F,]2 [D,F,]2 [G,,G,]4- | [G,,G,]4 z4 |] %17

